X: 38135
T: Sporting Galway
R: reel
M: 4/4
K: Gmajor
|:"G"BG (3GFG GABG|"Dm"AD (3DCD =FGAc|"G"BG (3GFG dGBd|"Am" edef "D"gedc|
"G"B2 GB dcBG|"Dm" AD (3DCD =FGAc|"D" d2 cA fdcA|"G"GB"D"AF "G"G4:|
K:Dmaj
"D"d3ef2dc|"G"dggf gbag|"F"=fdde fgaf|"Am7"gagf "D"d4|
"D"d3e fgag|"G"gbag "D"fd (3efg|"Am"a2 ge "D"fdcA|"G"GB "D"(3AGF "G"G4|
"D"d3ef2dc|"G"dggf gbag|"F"=fdde fgaf|"Am7"gagf "D"d2 d'c'|
"G"b2abg2de|"D"f2dc ABce|"G"dg (3gfg "D"fdcA|"G"GB"D"AF"G"G4|
K:Gmaj
|:"G"dG (3GFG dGeG|"G"dGBd "C"egfe|"G"dG (3GFG gefd|"Am"e2 AB "D"cgfe|
"G"dG (3GFG dGeG|"G"dGBd "C"egfe|"G"d2 Bd gefd|"Am"eAAB "D"cgfe:|

